!!!OTL: Abends und Morgens, S. 49
!!!id: L0040
**kern
*clefG2
*k[f#]
*G:
{8d
=1
4g
8g
8b
=2
4a
8a
8cc
=3
8b
8g
8a
8f#
=4
4g}
4r
=5
{8b
8dd
8dd
8dd
=6
8ee
8cc
8cc
8cc
=7
8a
8cc
8cc
8cc
=8
8dd
8b
8b
8b}
=9
{4.g
8b
=10
4.a
8cc
=11
8b
8g
8a
8f#
=12
4.g}
==
*-
!!!minrhy: 8
!!!meters: 2/4 ]  ZZ[3
!!!cut: Abends und Morgens, S. 49
!!!reg: Luxemburg
!!!trd: Die Luxemburger Volkslieder &auml;lterer Zeit, Luxemburg 1904 posth.
!!!rhy1: X  X_XX  X_XX  XXXX  X_0_
!!!rhy2: XXXX  XXXX  XXXX  XXXX
!!!key: L0040  08  G 2/4 ]  ZZ[3
!!!mod: HEPTATONIK IONISCH]  AMBITUS[9
!!!kad: 131
!!!akz: 1231_3625_1231_
!!!fot: 'a__b__av_
!!!for: 'a__b__c__
!!!fok: '^a_M__^__
!! PHRAS[VORWIEGEND VOLLTAKTIG]
!!!fkt: ??, Liebeslied
!! FONTAINE, Ed.:
!! PR[33] 2K[0] 2G[0] 3K[18] 3G[6] 4A[6] 4Ü[0] 5A[0] 6K[0] 6G[0]
!! 7K[0] 7G[0] 8A[0] MEHR[0] SI[30] ABS[33] SR[0] SP[30]
!! ST[10] 2k[3] 2g[9] 3k[21] 3g[3] 4d[0] 4ü[0] 5d[0] 6k[0] 6g[0]
!! 7k[0] 7g[0] 8d[0] mehr[0] si[36] dm[-6] sr[12] sp[24]
!! 1F[89] 2F[11] 3F[0] 4F[0] LF[0] 2P[0] 3P[0] 4P[0] TRI[0] DF[2] AB[36]
!! TF[0] U3K[0] U3[0] U4[0] U4Ü[0] U5[0] U6K[0] U6[0] U7K[0] U7[0]
!! N1[6] N2K[0] N2[12] N3K[0] N3[26] N4[15] N4Ü[0] N5[24] N6K[0] N6[15]
!!!n7k: 0] N7[0] O1[3] O2K[0] O2[0] O3K[0] O3[0] HÖ[0
!!!RNB: symbol: &auml;      = a umlaut  (UTF-8: Å„)
